src/assets/file_attachment_icon.svg

<svg xmlns="http://www.w3.org/2000/svg" version="1.1" viewBox="0 0 120 120"><path d="M56 4.407c-3.797 1.361-7.564 6.23-10.339 13.363C44.226 21.458 44 26.79 44 56.885c0 33.855.06 34.921 2.095 37.508 2.652 3.372 8.929 6.607 12.82 6.607 3.207 0 6.711-2.886 10.775-8.875C71.989 88.737 72 88.565 72 55.36V22H62l-.014 30.75c-.007 16.912-.261 31.672-.564 32.8-.687 2.558-3.841 4.61-5.882 3.827-1.344-.516-1.54-4.879-1.54-34.349 0-31.176.14-33.941 1.83-36.143 1.006-1.312 2.117-3.173 2.468-4.135.49-1.342 1.783-1.75 5.548-1.75 5.725 0 10.734 1.928 13.904 5.352C79.998 20.78 80 20.813 80 57.391 80 77.526 79.658 94 79.241 94c-.418 0-1.322.9-2.009 2-1.556 2.492-1.144 2.525 1.615.133C80.979 94.284 81 93.899 81 57.178V20.091l-2.666-2.666c-3.615-3.616-8.323-5.428-14.052-5.41-5.707.019-6.138.29-9.032 5.686C53.043 21.816 53 22.545 53 55.948 53 75.961 53.379 90 53.918 90c.505 0 1.547.241 2.315.536.769.295 2.605-.584 4.082-1.952L63 86.095V23h8v31.953c0 22.603-.351 32.771-1.198 34.75-2.011 4.693-7.979 10.261-11.018 10.28-4.059.025-9.081-2.743-11.572-6.379C45.036 90.429 45 89.823 45 56.317V22.258l3.127-7.078c2.753-6.233 3.647-7.324 7.489-9.129C62.471 2.828 70.71 3.24 78.767 7.206c10.764 5.299 10.225 2.682 10.229 49.64.004 39.363-.047 40.417-2.092 43.289-3.303 4.639-12.533 10.895-20.812 14.107-6.871 2.666-8.042 2.844-12.329 1.872-5.695-1.29-11.665-4.913-16.905-10.259C30.059 98.918 30 98.547 30 62.378V30h8v32.277c0 38.078-.713 35.502 11.86 42.859 3.395 1.987 6.719 3.137 9.065 3.137 3.977 0 10.861-3.284 15.015-7.163l2.56-2.39-3 1.932c-1.65 1.062-5.48 3.15-8.512 4.638-6.118 3.005-9.325 2.743-14.888-1.219-1.6-1.139-3.369-2.071-3.932-2.071-.562 0-2.405-1.678-4.095-3.728L39 94.544V29H29v33.941c0 21.549.365 34.167 1 34.559.55.34 1 1.337 1 2.215 0 .878 1.8 3.361 4 5.518 2.2 2.157 4 4.336 4 4.844s.638.923 1.417.923 1.566.337 1.75.75c.183.412 2.583 1.875 5.333 3.25 5.855 2.927 13.334 3.198 18 .65 1.65-.901 3.493-1.64 4.096-1.644 1.821-.01 7.404-3.086 7.404-4.079 0-.51.685-.927 1.522-.927.838 0 3.776-2.362 6.531-5.25l5.008-5.25-.281-42.276-.28-42.276-3.683-3.474c-2.026-1.911-4.276-3.477-5-3.481-.724-.003-2.667-.9-4.317-1.993-3.531-2.339-14.728-2.662-20.5-.593" fill="#848484" fill-rule="evenodd"/><path d="M55.376 6.101c-3.541 1.719-4.566 3.003-7.25 9.08L45 22.258v34.059c0 33.506.036 34.112 2.212 37.287 2.491 3.636 7.513 6.404 11.572 6.379 3.039-.019 9.007-5.587 11.018-10.28C70.649 87.724 71 77.556 71 54.953V23h-8v63.095l-2.685 2.489c-1.477 1.368-3.313 2.247-4.082 1.952-.768-.295-1.81-.536-2.315-.536C53.379 90 53 75.961 53 55.948c0-33.403.043-34.132 2.25-38.247 2.894-5.396 3.325-5.667 9.032-5.686 5.729-.018 10.437 1.794 14.052 5.41L81 20.091V93.99l-4.781 4.755c-5.979 5.946-12.481 9.528-17.294 9.528-2.346 0-5.67-1.15-9.065-3.137C37.287 97.779 38 100.355 38 62.277V30h-8v32.378c0 36.169.059 36.54 6.858 43.477 5.24 5.346 11.21 8.969 16.905 10.259 4.287.972 5.458.794 12.329-1.872 8.279-3.212 17.509-9.468 20.812-14.107 2.045-2.872 2.096-3.926 2.092-43.289-.004-46.958.535-44.341-10.229-49.64-7.992-3.935-16.712-4.346-23.391-1.105" fill="#848484" fill-rule="evenodd"/></svg>

<svg xmlns="http://www.w3.org/2000/svg" width="120" height="120" viewBox="0 0 120 120" version="1.1"><path d="M 56 4.407 C 52.203 5.768, 48.436 10.637, 45.661 17.770 C 44.226 21.458, 44 26.790, 44 56.885 C 44 90.740, 44.060 91.806, 46.095 94.393 C 48.747 97.765, 55.024 101, 58.915 101 C 62.122 101, 65.626 98.114, 69.690 92.125 C 71.989 88.737, 72 88.565, 72 55.360 L 72 22 67 22 L 62 22 61.986 52.750 C 61.979 69.662, 61.725 84.422, 61.422 85.550 C 60.735 88.108, 57.581 90.160, 55.540 89.377 C 54.196 88.861, 54 84.498, 54 55.028 C 54 23.852, 54.140 21.087, 55.830 18.885 C 56.836 17.573, 57.947 15.712, 58.298 14.750 C 58.788 13.408, 60.081 13, 63.846 13 C 69.571 13, 74.580 14.928, 77.750 18.352 C 79.998 20.780, 80 20.813, 80 57.391 C 80 77.526, 79.658 94, 79.241 94 C 78.823 94, 77.919 94.900, 77.232 96 C 75.676 98.492, 76.088 98.525, 78.847 96.133 C 80.979 94.284, 81 93.899, 81 57.178 L 81 20.091 78.334 17.425 C 74.719 13.809, 70.011 11.997, 64.282 12.015 C 58.575 12.034, 58.144 12.305, 55.250 17.701 C 53.043 21.816, 53 22.545, 53 55.948 C 53 75.961, 53.379 90, 53.918 90 C 54.423 90, 55.465 90.241, 56.233 90.536 C 57.002 90.831, 58.838 89.952, 60.315 88.584 L 63 86.095 63 54.548 L 63 23 67 23 L 71 23 71 54.953 C 71 77.556, 70.649 87.724, 69.802 89.703 C 67.791 94.396, 61.823 99.964, 58.784 99.983 C 54.725 100.008, 49.703 97.240, 47.212 93.604 C 45.036 90.429, 45 89.823, 45 56.317 L 45 22.258 48.127 15.180 C 50.880 8.947, 51.774 7.856, 55.616 6.051 C 62.471 2.828, 70.710 3.240, 78.767 7.206 C 89.531 12.505, 88.992 9.888, 88.996 56.846 C 89 96.209, 88.949 97.263, 86.904 100.135 C 83.601 104.774, 74.371 111.030, 66.092 114.242 C 59.221 116.908, 58.050 117.086, 53.763 116.114 C 48.068 114.824, 42.098 111.201, 36.858 105.855 C 30.059 98.918, 30 98.547, 30 62.378 L 30 30 34 30 L 38 30 38 62.277 C 38 100.355, 37.287 97.779, 49.860 105.136 C 53.255 107.123, 56.579 108.273, 58.925 108.273 C 62.902 108.273, 69.786 104.989, 73.940 101.110 L 76.500 98.720 73.500 100.652 C 71.850 101.714, 68.020 103.802, 64.988 105.290 C 58.870 108.295, 55.663 108.033, 50.100 104.071 C 48.500 102.932, 46.731 102, 46.168 102 C 45.606 102, 43.763 100.322, 42.073 98.272 L 39 94.544 39 61.772 L 39 29 34 29 L 29 29 29 62.941 C 29 84.490, 29.365 97.108, 30 97.500 C 30.550 97.840, 31 98.837, 31 99.715 C 31 100.593, 32.800 103.076, 35 105.233 C 37.200 107.390, 39 109.569, 39 110.077 C 39 110.585, 39.638 111, 40.417 111 C 41.196 111, 41.983 111.337, 42.167 111.750 C 42.350 112.162, 44.750 113.625, 47.500 115 C 53.355 117.927, 60.834 118.198, 65.500 115.650 C 67.150 114.749, 68.993 114.010, 69.596 114.006 C 71.417 113.996, 77 110.920, 77 109.927 C 77 109.417, 77.685 109, 78.522 109 C 79.360 109, 82.298 106.638, 85.053 103.750 L 90.061 98.500 89.780 56.224 L 89.500 13.948 85.817 10.474 C 83.791 8.563, 81.541 6.997, 80.817 6.993 C 80.093 6.990, 78.150 6.093, 76.500 5 C 72.969 2.661, 61.772 2.338, 56 4.407" stroke="none" fill="#848484" fill-rule="evenodd"/><path d="M 55.376 6.101 C 51.835 7.820, 50.810 9.104, 48.126 15.181 L 45 22.258 45 56.317 C 45 89.823, 45.036 90.429, 47.212 93.604 C 49.703 97.240, 54.725 100.008, 58.784 99.983 C 61.823 99.964, 67.791 94.396, 69.802 89.703 C 70.649 87.724, 71 77.556, 71 54.953 L 71 23 67 23 L 63 23 63 54.548 L 63 86.095 60.315 88.584 C 58.838 89.952, 57.002 90.831, 56.233 90.536 C 55.465 90.241, 54.423 90, 53.918 90 C 53.379 90, 53 75.961, 53 55.948 C 53 22.545, 53.043 21.816, 55.250 17.701 C 58.144 12.305, 58.575 12.034, 64.282 12.015 C 70.011 11.997, 74.719 13.809, 78.334 17.425 L 81 20.091 81 57.040 L 81 93.990 76.219 98.745 C 70.240 104.691, 63.738 108.273, 58.925 108.273 C 56.579 108.273, 53.255 107.123, 49.860 105.136 C 37.287 97.779, 38 100.355, 38 62.277 L 38 30 34 30 L 30 30 30 62.378 C 30 98.547, 30.059 98.918, 36.858 105.855 C 42.098 111.201, 48.068 114.824, 53.763 116.114 C 58.050 117.086, 59.221 116.908, 66.092 114.242 C 74.371 111.030, 83.601 104.774, 86.904 100.135 C 88.949 97.263, 89 96.209, 88.996 56.846 C 88.992 9.888, 89.531 12.505, 78.767 7.206 C 70.775 3.271, 62.055 2.860, 55.376 6.101" stroke="none" fill="#848484" fill-rule="evenodd"/></svg>
